X: 20838
T: Johnny's Wedding
R: reel
M: 4/4
K: Edorian
EF||GEBE GEEG|FDAD FDDF|GEBE GEEG|FDB,D E2EF|
GEBE GEEG|FDAD FDDF|EGFA GBAc|Be^df e2ef||
gefd edBc|dBAG FDDf|gefd edBA|Be^df e2 ef|
gefd edBc|dBAG FDDF|EGFA GBAc|Be^df e2EF||

